X:1
T:Ave Maria
T:Ave Maria
T:Crispin van Stappen (ca. 1470 - 1532)
T:Source : Motetti B---Venetia---O.Petrucci---1503. Editor : André Vierendeels (14/05/14).
T:Notes : Original clefs : C1, C3, C3, F4 Original note values have been halved Editorial accidentals above the staff Square brackets indicate ligatures
C:Cripin van Stappen
%%score [ 1 [ 2 3 ] 4 ]
L:1/8
Q:1/4=95
M:2/2
K:C
V:1 treble nm="Canto" snm="S"
V:2 treble-8 nm="Tenor 1" snm="T 1"
V:3 treble-8 nm="Tenor 2" snm="T 2"
V:4 bass nm="Bass" snm="B"
V:1
 A6 G2 | F6 ED | E2 F4 E2 | F8- | F8 | G8 | A8 | z4 D4 | !fermata!G8 | G6 A2 | B4 c4 | A8 | G8 | %13
w: A- *||* * ve|Ma-||ri-|a|a-|ve|gra- *|* ti-|a|ple-|
 !fermata!C8 | c8 | B3 A GF ED | E8 | z4 G4 | A4 G3 F | G8 | F8 | E8 | B8 | A4 B4 | c2 BA G2 c2- | %25
w: na|Do-|mi- * * * * *|nus|te-||||cum,|be-|ne- di-|cta _ _ _ _|
 c2 BA B4 | c8 | z8 | z8 | z8 | z8 | G4 G3 F | ED D4 C2 | D8 | z4 A4- |"^#" A2 GF G4 | A8 | E8 | %38
w: _ _ _ _|tu|||||et be- ne-|dic- * * *|tus|fru-|||ctus|
 z8 | z8 | E8 | z4 B4 | c8 | B4 B4 | A2 c4 BA |"^#""^#" G2 A4 G2 | A8- | A8 |] %48
w: ||ven-|||tris tu-|||i.|_|
V:2
 d8- | d8 | G8 | A8 | A8 | e8 | f8 | f8 | !fermata!e8 | e8 | d4 c4 | d8 | e8 | !fermata!e8 | e8 | %15
w: A-||ve|Ma-|ri|_||a,|_|gra-|ti- a|ple-||na,|Do-|
 d8 | c8 | d8 | d8 | c8 | d8 | !fermata!A8 | d8 | d8 | e8 | d8 | c8 | z8 | z8 | z8 | z8 | B8 | G8 | %33
w: mi-|nus|_|te-|||cum,|be-|ne|di-|cta|tu|||||et|be-|
 A8 | c8 | B8 | A8 | G8 | B8- | B8 | c8 | z8 | z8 | d8 | c8 | B8 | A8 | A8 |] %48
w: ne-|dic-||tus-||fru-||ctus|||ven|tris|_|tu-|i.|
V:3
 A8- | A4 B4 | c8 | c8 | c8 | c2 BA G4 | F3 G AB c2- | c2 BA B4 | !fermata!c8 | c4 g4- | g4 e4 | %11
w: A|_ ve|Ma-|ri-|a|[Ma- * * *|ri- * * * *||a]|gta- ti-|* a|
 z4 A4 | B2 c2 BA B2 | !fermata!A8 | G8 | G8 | G6 A2 | B8 | A4 B4 | G8 | A8 | d4 !fermata!c4 | g8 | %23
w: ple-||na,|Do-|mi-|nus _|_|te- *|||* cum,|Be-|
 f8 | g8 | g8 | e6 dc | B2 e3 d c2 | B2 e4 dc | B2 cd ef g2- | gf e4 d2 | e4 d4 | z4 G4 | F4 F4 | %34
w: ne|di-|cta|tu _ _|_ in _ _|mu- mi- e- *|||ri- bus|et|be- ne-|
 E6 e2 | e8 | c8- | c8 | d3 c B2 A2 | G2 A4 G2 | A2 GF E2 A2- | AG FE D2 G2- | G2 FE F4 | G4 g4 | %44
w: dic- *|tus|fru-|||* * ctus|ven- * * * *||* * * tris,|ven- *|
 e8 | e8 | e8- | e8 |] %48
w: tris|tu-|i.|_|
V:4
 D,8- | D,8 | C,8 | F,8 | F,6 E,D, | C,8 | z4 F,4 | D,8 | !fermata!C,8 | C,8 | G,4 A,4 | F,8 | %12
w: A-||ve|Ma-|ri- * *|a,|A-||ve,|gra-|ti- a|ple-|
 E,8 | !fermata!A,,8 | C,8 | G,,8 | C,8 | G,8 | F,4 G,4 | E,8 | D,8 | !fermata!A,,8 | G,,8 | D,8 | %24
w: |na,|Do-|mi-|nus|_|te- *|||cum,|be-|ne-|
 C,8 | G,8 | C,8 | G,4 A,4 | G,4 E,4 | z2 A,2 G,2 E,2 | G,4 F,4 | E,4 G,4- | G,2 F,2 E,4 | %33
w: di-|cta|tu-|in mu-|li- e-|* * ri-|bus _|_ _||
 D,6 C,2 | A,,8 | E,8 | F,6 E,2 | C,8 | G,6 F,2 | E,2 D,C, B,,4 | A,,8 | D,4 B,,4 | A,,8 | G,,8 | %44
w: |||||fru- *|* * * ctus|ven-||||
 A,,8 | E,8 | A,,8- | A,,8 |] %48
w: tris|tu-|i.|_|

